web/ui/src/components/data/log-viewer/svgs/auto-scroll.svg

<svg height="24" viewBox="0 0 24 24" width="24" xmlns="http://www.w3.org/2000/svg"><path d="m21 1c1.1 0 2 .9 2 2v18c0 1.1-.9 2-2 2h-18c-1.1 0-2-.9-2-2v-18c0-1.1.9-2 2-2zm-2 9.1106921v-3.28859004c0-.45403735-.3686798-.82210206-.8234759-.82210206h-12.35304824c-.45479608 0-.82347586.36806471-.82347586.82210206v3.28859004c0 .4540373.36867978.822102.82347586.822102h5.47652414l.0030587 3.7550779v2.0397147l-.7156939-.9049848c-.2818353-.356432-.79980758-.41714-1.15647113-.135775-.35702767.281365-.41783707.7984732-.13600187 1.1545418l2.2510404 2.8458217c.1560319.197555.3941444.3128096.6461454.3128096.0069184 0 .0140189 0 .0209374-.0003635.2594413-.0063616.5003121-.1345027.650697-.3457082l1.9446265-2.7325851c.2634468-.3700641.176056-.8831735-.1946265-1.1465443-.3706825-.2620984-.8850135-.1753987-1.1484602.1943018l-.5150593.7237698v-2.0049985l.0498075-3.687872 5.1763421-.0672059c.4547961 0 .8236579-.3680647.8236579-.822102zm-12.35286621-.82228387v-1.64438587h10.70591451v1.64438587z" fill="#fff"/></svg>

<?xml version="1.0" encoding="UTF-8"?>
<svg width="24px" height="24px" viewBox="0 0 24 24" version="1.1" xmlns="http://www.w3.org/2000/svg" xmlns:xlink="http://www.w3.org/1999/xlink">
    <title>形状</title>
    <g id="页面-1" stroke="none" stroke-width="1" fill="#FF0000" fill-rule="evenodd">
        <g id="建木自动化-详情（查看任务执行日志）" transform="translate(-1816.000000, -966.000000)" fill="#FFFFFF" fill-rule="nonzero">
            <g id="编组-8备份-3" transform="translate(1816.000000, 966.000000)">
                <path d="M21,1 C22.1,1 23,1.9 23,3 L23,3 L23,21 C23,22.1 22.1,23 21,23 L21,23 L3,23 C1.9,23 1,22.1 1,21 L1,21 L1,3 C1,1.9 1.9,1 3,1 L3,1 Z M19,10.1106921 L19,6.82210206 C19,6.36806471 18.6313202,6 18.1765241,6 L5.82347586,6 C5.36867978,6 5,6.36806471 5,6.82210206 L5,10.1106921 C5,10.5647294 5.36867978,10.9327941 5.82347586,10.9327941 L11.3,10.9327941 L11.3030587,14.687872 L11.3030587,16.7275867 L10.5873648,15.8226019 C10.3055295,15.4661699 9.78755722,15.4054619 9.43089367,15.6868269 C9.073866,15.9681919 9.0130566,16.4853001 9.2948918,16.8413687 L11.5459322,19.6871904 C11.7019641,19.8847454 11.9400766,20 12.1920776,20 C12.198996,20 12.2060965,20 12.213015,19.9996365 C12.4724563,19.9932749 12.7133271,19.8651338 12.863712,19.6539283 L14.8083385,16.9213432 C15.0717853,16.5512791 14.9843945,16.0381697 14.613712,15.7747989 C14.2430295,15.5127005 13.7286985,15.5994002 13.4652518,15.9691007 L12.9501925,16.6928705 L12.9501925,14.687872 L13,11 L18.1763421,10.9327941 C18.6311382,10.9327941 19,10.5647294 19,10.1106921 Z M6.64713379,9.28840823 L6.64713379,7.64402236 L17.3530483,7.64402236 L17.3530483,9.28840823 L6.64713379,9.28840823 Z" id="形状"></path>
            </g>
        </g>
    </g>
</svg>
